X: 1604
T: Anna Mae's
R: reel
M: 4/4
K: Gmajor
G2FG EFD2|gfga gdBd|efge dBGB|cABG AFFD|
G2FG EFD2|gfga gdBd|efge dBGB|1 cBAFG2DF:|2 cBAFG2Bd||
|:gfga gdBd|gfga gdBd|a^gab afdf|a^gab afdf|
gfga gdBd|gfga gdBd|efge dBGB|1 cBAFG2Bd:|2 cBAFG2DF||

